X:1
T:Highland Reel,Two. JMT109
L:1/8
M:6/8
I:linebreak $
K:C
V:1 treble 
V:1
 G | cGE cGE | GAG GAB | cGE cGE | Edd d2 e | cGE cGE | GAG Ggf | ede cAG |$ Acc c2 |: G | %10
 ceg gec | Bcd dBG | ceg gec | egg g2 G | ceg gec | Bcd def |$ ede cAG | Acc c2 :| %18
